fs/megaphone_28_regular.svg

<svg viewBox="0 0 28 28" fill="none" xmlns="http://www.w3.org/2000/svg" height="1em" width="1em">
  <path d="M26.001 7.35306C26.001 5.54618 24.2882 4.23032 22.5423 4.69595L4.04572 9.62912C2.84195 9.95017 2.00439 11.0404 2.00439 12.2862V15.7133C2.00439 16.9592 2.84195 18.0494 4.04572 18.3704L7 19.1583V19.4997C7 21.985 9.01472 23.9997 11.5 23.9997C13.2899 23.9997 14.8357 22.9547 15.5606 21.4415L22.5423 23.3036C24.2882 23.7692 26.001 22.4534 26.001 20.6465V7.35306ZM22.9289 6.14528C23.7225 5.93363 24.501 6.53176 24.501 7.35306V20.6465C24.501 21.4678 23.7225 22.0659 22.9289 21.8543L4.43227 16.9211C3.8851 16.7752 3.50439 16.2796 3.50439 15.7133V12.2862C3.50439 11.7199 3.8851 11.2244 4.43227 11.0785L22.9289 6.14528ZM14.0722 21.0446C13.5474 21.9165 12.5918 22.4997 11.5 22.4997C9.8628 22.4997 8.53192 21.1883 8.50057 19.5586L14.0722 21.0446Z" fill="#212121"/>
</svg>

<svg viewBox="0 0 28 28" fill="none" xmlns="http://www.w3.org/2000/svg" height="1em" width="1em">
  <path d="M26.001 7.353a2.75 2.75 0 0 0-3.459-2.657L4.046 9.629a2.75 2.75 0 0 0-2.042 2.657v3.427a2.75 2.75 0 0 0 2.042 2.657L7 19.158v.342a4.5 4.5 0 0 0 8.56 1.942l6.982 1.862a2.75 2.75 0 0 0 3.459-2.657V7.352Zm-3.072-1.208A1.25 1.25 0 0 1 24.5 7.353v13.294a1.25 1.25 0 0 1-1.572 1.207L4.432 16.921a1.25 1.25 0 0 1-.928-1.208v-3.427c0-.566.381-1.062.928-1.207L22.93 6.144Zm-8.857 14.9A3 3 0 0 1 8.5 19.559l5.572 1.486Z" fill="#212121"/>
</svg>
